X:0211
M:C|
L:1/8
Q:1/2=104
K:G
g2ag/a/ bggd|edef gdBG|g2ag/a/ bggd|edcB  B2A2 |
bgaf    gfed|egfa gdBG|GBAc    Bdge|dcBG TA2G2:|

